X:1
T:[ID 8-72]
T:[ID 8-72]
T:Bezeichnung standardisiert: March March
T:Urheber unbekannt Datum in der hier transkribierten schriftlichen Quelle: 1792
C:Urheber unbekannt
C:Datum in der hier transkribierten schriftlichen Quelle: 1792
L:1/8
M:2/4
K:D
V:1 treble 
V:1
 A/4B/4c/ | d3 D | F2 A2 | d3 f | e3 e | d3 c | A2 ^G2 | A>A c>e | a2 :: A | c3 A | d3 A | e3 g | %13
 f3 A | B3 d | d2 c2 | dDFA | dfag | gDFA | df<fe | d2 dd | d2 :| %22

